!!!!SEGMENT: pl-kk--kk-i-6--064-007_lilius-franciszek--missa-pro-defunctis-sanctus.krn
!!!cenid: 16xx:1066
!!!COM: Lilius, Franciszek
!!!COM-rismid: pe30020509
!!!CDT: ~1600-1657
!!!CNT: Polish
!!!OPR: Missa pro defunctis
!!!OTL: Sanctus
!!!OMV: 007
!!!PDT:
!!!AGN:
!!!SMS-siglum: PL-Kk
!!!SMS-shelfmark: Kk.I.6
!!!SMS-shelfwork: 064-007 M
!!!SMS-variant:
!!!SMS-altvar:
!!!NIFC-rismid: 1001136594
!!!URL-scan: http://repozytorium.nifc.pl/skany/pl-kk-nut--i-6
!!!ONB-nifc: UWAGA: C (skan 0088-0092), T (skan 0200-0206), B (skan 0313-0319) Części Mszy: 1. Requiem aeternam, 2. Kyrie, 3. Requiem aeternam, 4. Absolve Domine, 5. Dies irae, 6. Domine Jesu Christe, 7. Sanctus, 8. Agnus Dei, 9. Lux aeterna
!!!key:
**kern	**text	**kern	**text	**kern	**text
*part3	*part3	*part2	*part2	*part1	*part1
*staff3	*staff3	*staff2	*staff2	*staff1	*staff1
*Ibass	*	*Itenor	*	*Ivox	*
*I"Basso	*	*I"Tenore	*	*I"Canto	*
*I'B	*	*I'T	*	*I'C	*
*ICvox	*	*ICvox	*	*ICvox	*
*clefF4	*	*clefC4	*	*clefC4	*
*k[]	*	*k[]	*	*k[]	*
*C:	*	*C:	*	*C:	*
*M2/2	*	*M2/2	*	*M2/2	*
*	*	*	*	*met(c)	*
=1-	=1-	=1-	=1-	=1-	=1-
0AA/	San-	0c\	San-	1A\	San-
=2-	=2-	=2-	=2-	=2-	=2-
*	*	*	*	*lig	*
.	.	.	.	1A\	-ctus
=3-	=3-	=3-	=3-	=3-	=3-
1E\;<	-ctus	1B\;<	-ctus	1G/;	.
*	*	*	*	*Xlig	*
=4||-	=4||-	=4||-	=4||-	=4||-	=4||-
*k[]	*	*k[]	*	*k[b-]	*
*	*ij	*	*ij	*	*ij
2.AA/	San-	0c\	San-	1A\	San-
4GG/	.	.	.	.	.
=5-	=5-	=5-	=5-	=5-	=5-
*	*	*	*	*lig	*
1FF/	.	.	.	1A\	-ctus
*	*	*	*	*	*Xij
=6-	=6-	=6-	=6-	=6-	=6-
1C/;	-ctus	1c\;<	-ctus	1G/	.
*	*Xij	*	*Xij	*Xlig	*
=7||-	=7||-	=7||-	=7||-	=7||-	=7||-
*k[]	*	*k[]	*	*k[b-]	*
1D\	San-	2.A/	San-	1F/	San-
.	.	4B/	.	.	.
=8-	=8-	=8-	=8-	=8-	=8-
*custos:f	*	*	*	*	*
1C/	-ctus	1c\	.	1G/	-ctus
!LO:LB:g=original	!	!	!	!	!
=9-	=9-	=9-	=9-	=9-	=9-
1.F\	Do-	2c\	-ctus	1A\	Do-
.	.	2.c\	Do-	.	.
=10-	=10-	=10-	=10-	=10-	=10-
.	.	.	.	1A\	-mi-
.	.	4c\	-mi-	.	.
2F\	-mi-	2A/	-nus	.	.
=11-	=11-	=11-	=11-	=11-	=11-
1D\	-nus	1.d\	De-	1A\	-nus
=12-	=12-	=12-	=12-	=12-	=12-
1AA/	De-	.	.	1A\	De-
!	!	!LO:TX:a:t=P:problem=# above	!	!	!
.	.	2c#X\	.	.	.
=13-	=13-	=13-	=13-	=13-	=13-
1D\	-us	1d\	-us	1A\	-us
=14-	=14-	=14-	=14-	=14-	=14-
*lig	*	*	*	*	*
1F\	Sab-	0cny\	Sab-	1A\	Sab-
=15-	=15-	=15-	=15-	=15-	=15-
*	*	*	*	*custos:g	*
1.C/	.	.	.	1G/	-ba-
*Xlig	*	*	*	*	*
!	!	!	!	!LO:LB:g=original	!
=16-	=16-	=16-	=16-	=16-	=16-
*	*	*	*	*lig	*
.	.	1c\	-ba-	1G/	-oth
2C/	-ba-	.	.	.	.
=17-	=17-	=17-	=17-	=17-	=17-
1FF/;	-oth	1c\;<	-oth	1A\;	.
*	*	*	*	*Xlig	*
!	!	!LO:LB:g=original	!	!	!
=18||-	=18||-	=18||-	=18||-	=18||-	=18||-
*M2/2	*	*	*	*	*
*met(C)	*	*	*	*	*
*k[]	*	*k[]	*	*k[b-]	*
1D\	Ple-	2.A\	Ple-	1F/	Ple-
.	.	4B\	.	.	.
=19-	=19-	=19-	=19-	=19-	=19-
2E\	-ni	1.c\	.	1G/	-ni
2E\	ſunt	.	.	.	.
=20-	=20-	=20-	=20-	=20-	=20-
2.F\	cae-	.	.	1A\	ſunt
.	.	2c\	-ni	.	.
4E\	.	.	.	.	.
=21-	=21-	=21-	=21-	=21-	=21-
1D\	.	1F/	ſunt	1A\	cae-
=22-	=22-	=22-	=22-	=22-	=22-
!LO:TX:a:t=P:problem=# above	!	!	!	!	!
1C#X/	.	2E/	cae-	1A\	-li
.	.	4E/	-li	.	.
.	.	4E/	et	.	.
=23-	=23-	=23-	=23-	=23-	=23-
2D/	-li	2D/	ter-	1A\	et
2AA/	et	2E/	.	.	.
=24-	=24-	=24-	=24-	=24-	=24-
4FF/	ter-	1F/	.	1A\	ter-
4GG/	.	.	.	.	.
4AA/	.	.	.	.	.
4BB-X/	.	.	.	.	.
=25-	=25-	=25-	=25-	=25-	=25-
2Cny/	.	1E/	-ra	1G/	-ra
*custos:g	*	*	*	*	*
2C/	-ra	.	.	.	.
!LO:PB:g=original	!	!	!	!	!
=26-	=26-	=26-	=26-	=26-	=26-
2.GG/	glo-	2r	.	1B-X\	glo-
.	.	2.G/	glo-	.	.
4GG/	-ri-	.	.	.	.
=27-	=27-	=27-	=27-	=27-	=27-
1D\	-a	.	.	1A\	-ri-
.	.	4G/	-ri-	.	.
.	.	2F/	-a	.	.
=28-	=28-	=28-	=28-	=28-	=28-
2.AA/	tu-	2E/	tu-	1A\	-a
.	.	1F/	.	.	.
4BB-X/	.	.	.	.	.
=29-	=29-	=29-	=29-	=29-	=29-
1C/	.	.	.	1G/	tu-
.	.	2E/	.	.	.
=30-	=30-	=30-	=30-	=30-	=30-
0FF/;	-a	1F/;	-a	0F;/	-a
!	!	!LO:LB;g=original	!	!LO:LB:g=original	!
=31-	=31-	=31-	=31-	=31-	=31-
.	.	1ryy	.	.	.
=32||-	=32||-	=32||-	=32||-	=32||-	=32||-
*k[b-]	*	*k[]	*	*k[b-]	*
*M2/2	*	*M2/2	*	*M2/2	*
1FF/	O-	1c\	O-	1A\	O-
=33-	=33-	=33-	=33-	=33-	=33-
1FF/	-ſan-	1c\	-ſan-	1A\	-ſan-
=34-	=34-	=34-	=34-	=34-	=34-
1C/	-na	2c\	-na	1G/	-na
.	.	2.c\	in	.	.
=35-	=35-	=35-	=35-	=35-	=35-
2.F\	in	.	.	1A\	in
.	.	4B-\	.	.	.
.	.	2A\	.	.	.
4E\	.	.	.	.	.
=36-	=36-	=36-	=36-	=36-	=36-
2D\	.	2d\	ex-	1A\	ex-
2F\	ex-	1d\	-cel-	.	.
=37-	=37-	=37-	=37-	=37-	=37-
0E\	-cel-	.	.	1G/	-cel-
.	.	4c\	.	.	.
.	.	4B-\	.	.	.
=38-	=38-	=38-	=38-	=38-	=38-
*	*	*	*	*lig	*
!	!	!LO:TX:a:t=P:problem=# below	!	!	!
.	.	1c#X\	.	1G/	-ſis-
=39-	=39-	=39-	=39-	=39-	=39-
0D\;<	-sis	1d\;<	-sis	1A\;	.
*	*	*	*	*Xlig	*
!LO:LB:g=original	!	!	!	!	!
=40-	=40-	=40-	=40-	=40-	=40-
.	.	1ryy	.	1ryy	.
=41||-	=41||-	=41||-	=41||-	=41||-	=41||-
*k[b-]	*	*k[]	*	*k[b-]	*
1D\	Be-	1A\	Be-	1F/	Be-
=42-	=42-	=42-	=42-	=42-	=42-
1C/	-ne-	1c\	-ne-	1G/	-ne-
=43-	=43-	=43-	=43-	=43-	=43-
1F\	-di-	1c\	-dic-	1A\	-dic-
=44-	=44-	=44-	=44-	=44-	=44-
1.F\	-ctus	1.c\	-tus	1A\	-tus
=45-	=45-	=45-	=45-	=45-	=45-
.	.	.	.	1A\	qui
2F\	qui	2c\	qui	.	.
=46-	=46-	=46-	=46-	=46-	=46-
1F\	ve-	1c\	ve-	1A\	ve-
=47-	=47-	=47-	=47-	=47-	=47-
1F\	-nit	1c\	-nit	1A\	-nit
=48-	=48-	=48-	=48-	=48-	=48-
1C/	in	1c\	in	1G/	in
=49-	=49-	=49-	=49-	=49-	=49-
2.GG/	no-	2.d\	no-	1B-X\	no-
4GG/	-mi-	4d\	-mi-	.	.
=50-	=50-	=50-	=50-	=50-	=50-
*	*	*custos:c	*	*custos:g	*
1AA/	-ne	1c\	-ne	1A\	-mi-
!	!	!	!	!LO:LB:g=original	!
!	!	!LO:PB:g=original	!	!	!
=51-	=51-	=51-	=51-	=51-	=51-
1C/	Do-	2.c\	Do-	1G/	-ne
.	.	4B-\	.	.	.
=52-	=52-	=52-	=52-	=52-	=52-
1FF/	.	4A/	.	1A\	Do-
.	.	4G/	.	.	.
.	.	1F/	.	.	.
=53-	=53-	=53-	=53-	=53-	=53-
2.C/	.	.	.	1G/	-mi-
.	.	2E/	-mi-	.	.
4C/	-mi-	.	.	.	.
=54-	=54-	=54-	=54-	=54-	=54-
0FF/;	-ni	1F/;	-ni	1F/;	-ni
=55-	=55-	=55-	=55-	=55-	=55-
.	.	1ryy	.	1ryy	.
!LO:LB:g=original	!	!	!	!	!
=56||-	=56||-	=56||-	=56||-	=56||-	=56||-
*M2/2	*	*M2/2	*	*M2/2	*
*	*	*	*	*k[b-]	*
*	*	*	*	*lig	*
2r	.	1r	.	1D/	O-
1D\	O-	.	.	.	.
=57-	=57-	=57-	=57-	=57-	=57-
.	.	1A\	O-	1F/	.
2.F\	-ſan-	.	.	.	.
*	*	*	*	*Xlig	*
=58-	=58-	=58-	=58-	=58-	=58-
*	*	*	*	*lig	*
.	.	2c\	-ſan-	1F/	-ſan-
4E\	.	.	.	.	.
4D\	.	2.d\	.	.	.
4C\	.	.	.	.	.
=59-	=59-	=59-	=59-	=59-	=59-
2.BB-X/	.	.	.	1G/	.
.	.	4c\	.	.	.
.	.	2.B-X\	.	.	.
4AA/	.	.	.	.	.
*	*	*	*	*Xlig	*
=60-	=60-	=60-	=60-	=60-	=60-
1GG/	.	.	.	1G/	-na
.	.	4A\	.	.	.
.	.	2G/	.	.	.
=61-	=61-	=61-	=61-	=61-	=61-
2D/	-na	0F/	-na	1A\	in
2.D/	in	.	.	.	.
=62-	=62-	=62-	=62-	=62-	=62-
.	.	.	.	1A\	ex-
4E\	.	.	.	.	.
4F\	.	.	.	.	.
4D\	.	.	.	.	.
=63-	=63-	=63-	=63-	=63-	=63-
*	*	*	*	*lig	*
1E\	.	2G/	in-	1G/	-cel-
.	.	2E/	ex-	.	.
=64-	=64-	=64-	=64-	=64-	=64-
1D\	ex-	2.F/	-cel-	1A\	.
.	.	4E/	.	.	.
*	*	*	*	*Xlig	*
=65-	=65-	=65-	=65-	=65-	=65-
2BB-X/	-cel-	2D/	.	1G/	-ſis-
2C/	.	2G/	.	.	.
=66-	=66-	=66-	=66-	=66-	=66-
*	*	*	*	*lig	*
1FF/	-sis	1A\	-sis	1F/	.
=67-	=67-	=67-	=67-	=67-	=67-
1.C/	in	2r	.	1G/	.
*	*	*	*ij	*	*
*	*	*custos:g	*	*	*
.	.	2c\	O-	.	.
*	*	*	*	*Xlig	*
!	!	!LO:LB:g=original	!	!	!
=68-	=68-	=68-	=68-	=68-	=68-
.	.	2G/	-san-	1G/	.
2C/	ex-	1c\	-na	.	.
=69-	=69-	=69-	=69-	=69-	=69-
0GG/	-cel-	.	.	[0G/	.
.	.	4B-\	in	.	.
.	.	4A\	ex-	.	.
=70-	=70-	=70-	=70-	=70-	=70-
.	.	1B-\	-cel-	.	.
=71-	=71-	=71-	=71-	=71-	=71-
2C/	-sis	0c\	-sis	0G/_	.
2C/	o-	.	.	.	.
=72-	=72-	=72-	=72-	=72-	=72-
2.E\	-ſan-	.	.	.	.
*custos:c	*	*	*	*	*
4D/	.	.	.	.	.
!LO:LB:g=original	!	!	!	!	!
=73-	=73-	=73-	=73-	=73-	=73-
2C/	.	2r	.	0G/_	.
2BB-/	-na	2d\	O-	.	.
=74-	=74-	=74-	=74-	=74-	=74-
2.C/	in	2.e\	-san-	.	.
4D/	.	4d\	-na	.	.
=75-	=75-	=75-	=75-	=75-	=75-
2E\	.	2c\	in	00G;</]	.
2G\	ex-	2B-\	ex-	.	.
=76-	=76-	=76-	=76-	=76-	=76-
1C/	-cel-	1c\	-cel-	.	.
=77-	=77-	=77-	=77-	=77-	=77-
0GG;/	-sis	0B-\	-sis	.	.
*	*	*	*Xij	*	*
=78-	=78-	=78-	=78-	=78-	=78-
==	==	==	==	==	==
*-	*-	*-	*-	*-	*-
!!!system-decoration: s1,s2,s3
!!!RDF**kern: > = above
!!!RDF**kern: < = below
!!!AIN: 1 bass 1 tenor 1 vox
!!!ENC: Andrzej Gręziak
!!!END: 2021-10-26
!!!ENC: Leszek Kubiak
!!!END: 2021-12-22
